apps/scalable/googledocs.svg

<svg xmlns="http://www.w3.org/2000/svg" style="isolation:isolate" width="256" height="256" viewBox="0 0 256 256">
 <defs>
  <filter id="TlfHM60XGXQ1dC5caNFrHfXlwenOV8xA" width="400%" height="400%" x="-200%" y="-200%" color-interpolation-filters="sRGB" filterUnits="objectBoundingBox">
   <feGaussianBlur xmlns="http://www.w3.org/2000/svg" in="SourceGraphic" stdDeviation="4.294"/>
   <feOffset xmlns="http://www.w3.org/2000/svg" dx="0" dy="4" result="pf_100_offsetBlur"/>
   <feFlood xmlns="http://www.w3.org/2000/svg" flood-opacity=".4"/>
   <feComposite xmlns="http://www.w3.org/2000/svg" in2="pf_100_offsetBlur" operator="in" result="pf_100_dropShadow"/>
   <feBlend xmlns="http://www.w3.org/2000/svg" in="SourceGraphic" in2="pf_100_dropShadow" mode="normal"/>
  </filter>
 </defs>
 <g filter="url(#TlfHM60XGXQ1dC5caNFrHfXlwenOV8xA)">
  <path fill="#E6E6E6" d="M 165.688919 11.95 C 239.744626 11.95 250.328309 22.507198 250.328309 96.493859 L 250.328309 155.744653 C 250.328309 229.73091 239.744626 240.288396 165.688919 240.288396 L 90.319393 240.288396 C 16.26369 240.288396 5.68 229.73091 5.68 155.744653 L 5.68 96.493859 C 5.68 22.507198 16.26369 11.95 90.319393 11.95 L 165.688919 11.95 Z"/>
 </g>
 <g opacity=".1">
  <path fill="#FFFFFF" d="M 6.357415 83.579714 L 211.766022 236.610322 C 200.204289 238.92143 185.339539 239.628592 166.242886 239.628592 L 90.873361 239.628592 C 16.817653 239.628592 6.23397 229.071106 6.23397 155.084848 L 6.23397 95.834054 C 6.23397 91.531105 6.275464 87.463972 6.357415 83.579714 L 6.357415 83.579714 Z"/>
 </g>
 <g opacity=".4">
  <linearGradient id="_lgradient_7" x1=".517" x2=".517" y1="0" y2="1">
   <stop offset="0%" style="stop-color:rgb(255,255,255)"/>
   <stop offset="12.5%" stop-opacity=".098" style="stop-color:rgb(255,255,255)"/>
   <stop offset="92.5%" stop-opacity=".098" style="stop-color:rgb(0,0,0)"/>
   <stop offset="100%" stop-opacity=".498" style="stop-color:rgb(0,0,0)"/>
  </linearGradient>
  <path fill="none" stroke="url(#_lgradient_7)" stroke-linecap="round" stroke-linejoin="round" stroke-width="4.077" d="M 165.68477 11.946993 C 239.740477 11.946993 250.324166 22.504193 250.324166 96.490823 L 250.324166 155.741586 C 250.324166 229.727914 239.740477 240.285417 165.68477 240.285417 L 90.315251 240.285417 C 16.259544 240.285417 5.675855 229.727914 5.675855 155.741586 L 5.675855 96.490823 C 5.675855 22.504193 16.259544 11.946993 90.315251 11.946993 L 165.68477 11.946993 Z" vector-effect="non-scaling-stroke"/>
 </g>
 <g filter="url(#nFjtJYMDqpQi6zo9IDY6feXeWvbX1aPw)">
  <path fill="#5884F4" fill-rule="evenodd" d="M 74.380457 53.5 C 70.840455 53.5 68 56.368951 68 59.926672 L 68 192.08761 C 68 195.645328 70.840455 198.5 74.380457 198.5 L 181.611922 198.5 C 185.151923 198.5 187.992379 195.645328 187.992379 192.08761 L 187.992379 88.632473 L 184.22663 84.890722 L 163.877378 64.611002 L 152.736446 53.514281 L 152.722259 53.5 L 74.38048 53.5 L 74.380457 53.5 Z"/>
  <path fill="#A2BCFE" d="M 152.698795 88.558574 L 188 88.619076 L 152.723932 53.500569 L 152.698795 88.558574 Z"/>
  <rect fill="#FFFFFF" width="81.672" height="7.756" x="86.91" y="101.25" transform="matrix(1,0,0,1,0,0)"/>
  <rect fill="#FFFFFF" width="81.672" height="7.756" x="86.92" y="120.17" transform="matrix(1,0,0,1,0,0)"/>
  <rect fill="#FFFFFF" width="81.672" height="7.756" x="86.92" y="139.12" transform="matrix(1,0,0,1,0,0)"/>
  <rect fill="#FFFFFF" width="44.373" height="7.756" x="86.92" y="158.32" transform="matrix(1,0,0,1,0,0)"/>
  <g opacity=".79">
   <path fill="#2F5FDD" d="M 187.998076 88.617805 L 187.985435 124.037623 L 152.69663 88.557537 L 187.998076 88.617805 Z"/>
  </g>
 </g>
 <defs>
  <filter id="nFjtJYMDqpQi6zo9IDY6feXeWvbX1aPw" width="400%" height="400%" x="-200%" y="-200%" color-interpolation-filters="sRGB" filterUnits="objectBoundingBox">
   <feGaussianBlur xmlns="http://www.w3.org/2000/svg" in="SourceGraphic" stdDeviation="4.294"/>
   <feOffset xmlns="http://www.w3.org/2000/svg" dx="0" dy="4" result="pf_100_offsetBlur"/>
   <feFlood xmlns="http://www.w3.org/2000/svg" flood-opacity=".4"/>
   <feComposite xmlns="http://www.w3.org/2000/svg" in2="pf_100_offsetBlur" operator="in" result="pf_100_dropShadow"/>
   <feBlend xmlns="http://www.w3.org/2000/svg" in="SourceGraphic" in2="pf_100_dropShadow" mode="normal"/>
  </filter>
 </defs>
</svg>

<svg xmlns="http://www.w3.org/2000/svg" style="isolation:isolate" width="256" height="256"><defs><filter id="a" width="400%" height="400%" x="-200%" y="-200%" color-interpolation-filters="sRGB" filterUnits="objectBoundingBox"><feGaussianBlur xmlns="http://www.w3.org/2000/svg" in="SourceGraphic" stdDeviation="4.294"/><feOffset xmlns="http://www.w3.org/2000/svg" dy="4" result="pf_100_offsetBlur"/><feFlood xmlns="http://www.w3.org/2000/svg" flood-opacity=".4"/><feComposite xmlns="http://www.w3.org/2000/svg" in2="pf_100_offsetBlur" operator="in" result="pf_100_dropShadow"/><feBlend xmlns="http://www.w3.org/2000/svg" in="SourceGraphic" in2="pf_100_dropShadow"/></filter></defs><path fill="#E6E6E6" d="M165.689 11.95c74.056 0 84.64 10.557 84.64 84.544v59.25c0 73.987-10.584 84.544-84.64 84.544h-75.37c-74.055 0-84.639-10.557-84.639-84.543V96.494c0-73.987 10.584-84.544 84.64-84.544h75.369z" filter="url(#a)"/><path fill="#FFF" d="M6.357 83.58l205.409 153.03c-11.562 2.311-26.426 3.019-45.523 3.019h-75.37c-74.055 0-84.639-10.558-84.639-84.544v-59.25c0-4.304.041-8.371.123-12.255z" opacity=".1"/><g opacity=".4"><linearGradient id="b" x1=".517" x2=".517" y2="1"><stop offset="0%" stop-color="#fff"/><stop offset="12.5%" stop-opacity=".098" stop-color="#fff"/><stop offset="92.5%" stop-opacity=".098"/><stop offset="100%" stop-opacity=".498"/></linearGradient><path fill="none" stroke="url(#b)" stroke-linecap="round" stroke-linejoin="round" stroke-width="4.077" d="M165.685 11.947c74.055 0 84.64 10.557 84.64 84.544v59.25c0 73.987-10.585 84.544-84.64 84.544h-75.37c-74.055 0-84.64-10.557-84.64-84.543V96.49c0-73.987 10.585-84.544 84.64-84.544h75.37z" vector-effect="non-scaling-stroke"/></g><g filter="url(#nFjtJYMDqpQi6zo9IDY6feXeWvbX1aPw)"><path fill="#5884F4" fill-rule="evenodd" d="M74.38 53.5c-3.54 0-6.38 2.869-6.38 6.427v132.16c0 3.558 2.84 6.413 6.38 6.413h107.232c3.54 0 6.38-2.855 6.38-6.412V88.632l-3.765-3.741-20.35-20.28-11.14-11.097-.015-.014H74.38z"/><path fill="#A2BCFE" d="M152.699 88.559l35.301.06-35.276-35.118-.025 35.058z"/><path fill="#FFF" d="M86.91 101.25h81.672v7.756H86.91zM86.92 120.17h81.672v7.756H86.92zM86.92 139.12h81.672v7.756H86.92zM86.92 158.32h44.373v7.756H86.92z"/><path fill="#2F5FDD" d="M187.998 88.618l-.013 35.42-35.288-35.48 35.301.06z" opacity=".79"/></g><defs><filter id="nFjtJYMDqpQi6zo9IDY6feXeWvbX1aPw" width="400%" height="400%" x="-200%" y="-200%" color-interpolation-filters="sRGB" filterUnits="objectBoundingBox"><feGaussianBlur xmlns="http://www.w3.org/2000/svg" in="SourceGraphic" stdDeviation="4.294"/><feOffset xmlns="http://www.w3.org/2000/svg" dy="4" result="pf_100_offsetBlur"/><feFlood xmlns="http://www.w3.org/2000/svg" flood-opacity=".4"/><feComposite xmlns="http://www.w3.org/2000/svg" in2="pf_100_offsetBlur" operator="in" result="pf_100_dropShadow"/><feBlend xmlns="http://www.w3.org/2000/svg" in="SourceGraphic" in2="pf_100_dropShadow"/></filter></defs></svg>
